X: 21822
T: Kinnegad Slashers, The
R: jig
M: 6/8
K: Dmajor
ded dAF|ABA Afe|ded dAF|Eee efe|
ded dAF|ABA a2 g|~f3 dBA|Bdc d2:|
dfa afd|B/c/de ecA|dfa afd|faa a2 f|
dfa afd|B/c/de eag|~f3 dBA|Bdc d2:|
dAF dAF|ABA Afe|dAF dAF|Eee efe|
dAF dAF|ABA a2 g|~f3 dBA|Bdc d2:|

